img/twitter.svg

<svg width="48" height="48" viewBox="0 0 48 48" fill="none" xmlns="http://www.w3.org/2000/svg">
<path d="M0 24C0 10.7452 10.7452 0 24 0C37.2548 0 48 10.7452 48 24C48 37.2548 37.2548 48 24 48C10.7452 48 0 37.2548 0 24Z" fill="#F6F6F8"/>
<g clip-path="url(#clip0_2_290)">
<path d="M35.9539 16.5691C35.069 16.9581 34.124 17.2231 33.129 17.3441C34.143 16.7331 34.923 15.7701 35.292 14.6211C34.341 15.1761 33.287 15.5801 32.165 15.8051C31.269 14.8461 29.992 14.2461 28.5739 14.2461C25.857 14.2461 23.6539 16.4491 23.6539 19.1631C23.6539 19.5531 23.699 19.9281 23.781 20.2871C19.691 20.0941 16.066 18.1301 13.64 15.1611C13.213 15.8831 12.974 16.7221 12.974 17.6361C12.974 19.3461 13.844 20.8491 15.162 21.7321C14.355 21.7061 13.596 21.4841 12.934 21.1161V21.1771C12.934 23.5621 14.627 25.5511 16.88 26.0041C16.467 26.1151 16.031 26.1751 15.584 26.1751C15.27 26.1751 14.969 26.145 14.668 26.089C15.299 28.0421 17.113 29.4661 19.272 29.5061C17.592 30.825 15.463 31.6111 13.17 31.6111C12.78 31.6111 12.391 31.5881 12 31.5441C14.189 32.9381 16.768 33.753 19.557 33.753C28.611 33.753 33.556 26.257 33.556 19.7671C33.556 19.5581 33.556 19.3471 33.541 19.1371C34.5019 18.4481 35.341 17.5771 36.001 16.5891L35.9539 16.5691Z" fill="#1C1C33"/>
</g>
<defs>
<clipPath id="clip0_2_290">
<rect width="24" height="24" fill="white" transform="translate(12 12)"/>
</clipPath>
</defs>
</svg>

<svg width="48" height="48" fill="none" xmlns="http://www.w3.org/2000/svg"><path d="M0 24C0 10.745 10.745 0 24 0s24 10.745 24 24-10.745 24-24 24S0 37.255 0 24z" fill="#F6F6F8"/><g clip-path="url(#clip0_2_290)"><path d="M35.954 16.57a9.999 9.999 0 01-2.825.774 4.958 4.958 0 002.163-2.723c-.951.555-2.005.96-3.127 1.184a4.92 4.92 0 00-8.384 4.482c-4.09-.193-7.715-2.157-10.141-5.126a4.822 4.822 0 00-.666 2.475c0 1.71.87 3.213 2.188 4.096a4.904 4.904 0 01-2.228-.616v.061a4.923 4.923 0 003.946 4.827 4.996 4.996 0 01-2.212.085 4.937 4.937 0 004.604 3.417 9.869 9.869 0 01-6.102 2.105c-.39 0-.779-.023-1.17-.067a13.995 13.995 0 007.557 2.209c9.054 0 13.999-7.496 13.999-13.986 0-.209 0-.42-.015-.63.96-.689 1.8-1.56 2.46-2.548l-.047-.02z" fill="#1C1C33"/></g><defs><clipPath id="clip0_2_290"><path fill="#fff" transform="translate(12 12)" d="M0 0h24v24H0z"/></clipPath></defs></svg>
